!!!OTL: Die Mordeltern In dem schoenen Badner Lande
!!!ARE: Europa, Mitteleuropa, Deutschland (), Thueringen
!!!YOR: 4, S. 307
!!    ????
!!!SCT: Q0085H
!!!YEM: Copyright 1995, estate of Helmut Schaffrath.
**kern
*ICvox
*Ivox
*M6/8
*k[]
*C:
=1
{4e
8e
4e
8e
=2
8e
8d
8e
4g
8f}
=3
{4f
8f
4d
8d
=4
8g
8a
8g
4e
8r}
=5
{4e
8e
4e
8e
=6
8e
8d
8e
4g
8f}
=7
{4f
8f
4d
8d
=8
8g
8a
8g
4e
8r}
==
!!!AGN: Ballade, Habgier, Mord, Reue, Selbstmord
!!!ONB: ESAC (Essen Associative Code) Database: BALLADE
!!!AMT: compound duple
!!!AIN: vox
!!!EED: Helmut Schaffrath
!!!EEV: 1.0
*-
